icons/intro/policy.svg

<svg width="42" height="42" viewBox="0 0 42 42" fill="none" xmlns="http://www.w3.org/2000/svg">
<path d="M37.5709 2.04049H10.4123C8.05533 2.04049 6.13773 3.94016 6.13773 6.26759L5.9627 30.1822H0.66256C0.286943 30.1822 0 30.5143 0 30.8899V34.1811C0 37.2621 2.46558 39.7819 5.44129 39.92V39.9595H28.3117V39.915C28.4818 39.922 28.5847 39.9595 28.7016 39.9595H28.7179C31.8915 39.9409 34.4498 37.3541 34.4332 34.1805V13.2632H41.3374C41.713 13.2632 42 12.9231 42 12.5478V6.50904C42.0043 4.05474 40.0252 2.05809 37.5709 2.04049V2.04049ZM5.73886 38.5992H5.73421C3.31479 38.5992 1.36032 36.5996 1.36032 34.1805V31.5425H22.9554V34.1692C22.9501 35.7002 23.5549 37.1701 24.6359 38.2541C24.7508 38.3697 24.8711 38.4292 24.9939 38.5992H5.73886ZM33.0728 34.1798C33.0728 36.5996 31.1373 38.5992 28.7169 38.5992H28.7029C26.2706 38.5816 24.3101 36.6019 24.3158 34.1695V30.8899C24.3178 30.509 24.0165 30.1955 23.6356 30.1822H7.32303L7.49805 6.27224C7.49805 4.6904 8.80523 3.40081 10.4123 3.40081H34.3598C33.5846 4.25102 33.0728 5.32672 33.0728 6.5273V34.1798ZM40.6396 6.52099V11.9028H34.4332V6.52597C34.4332 4.82357 35.8493 3.40081 37.551 3.40081H37.5699C39.276 3.41775 40.6476 4.80963 40.6396 6.51601V6.52099Z" fill="#44C6FE"/>
<path d="M15.9715 18.7822L19.4783 21.1797C19.7071 21.3374 20.0097 21.3374 20.2385 21.1797L23.7346 18.7828C24.9492 17.9542 25.8462 16.2219 25.8462 14.753V9.9022C25.8535 9.64582 25.712 9.40802 25.4835 9.29145L20.1442 6.66513C19.9569 6.57213 19.737 6.57213 19.5497 6.66513L14.2203 9.28415C13.9918 9.40072 13.8507 9.63851 13.8583 9.8949V14.753C13.8583 16.2219 14.7573 17.9542 15.9715 18.7822ZM15.2187 10.3193L19.8523 8.03309L24.4859 10.3256V14.753C24.4859 15.7776 23.8143 17.0808 22.9671 17.6583L19.8443 19.7941L16.7337 17.6586C15.8865 17.0804 15.2187 15.7776 15.2187 14.753V10.3193Z" fill="#44C6FE"/>
<path d="M18.7018 15.7799C18.8287 15.9094 19.002 15.9828 19.1834 15.9838H19.185C19.3657 15.9831 19.5387 15.9107 19.6659 15.7825L22.3716 13.0758C22.6377 12.8102 22.6377 12.3791 22.372 12.1134C22.1066 11.8474 21.6755 11.8474 21.4098 12.1131L19.1874 14.3352L18.299 13.4382C18.0343 13.1712 17.6035 13.1692 17.3365 13.4339C17.0695 13.6986 17.0678 14.1293 17.3322 14.3963L18.7018 15.7799Z" fill="#44C6FE"/>
</svg>

<svg xmlns="http://www.w3.org/2000/svg" fill="none" viewBox="0 0 42 42"><path fill="#44C6FE" d="M37.57 2.04H10.413c-2.357 0-4.274 1.9-4.274 4.228l-.175 23.914h-5.3c-.376 0-.663.332-.663.708v3.291c0 3.081 2.466 5.6 5.441 5.739v.04h22.87v-.045c.17.007.274.044.39.044h.017a5.75 5.75 0 0 0 5.715-5.779V13.264h6.904c.376 0 .663-.34.663-.715V6.509a4.46 4.46 0 0 0-4.43-4.469zM5.74 38.6h-.005c-2.42 0-4.374-2-4.374-4.42v-2.637h21.595v2.626c-.005 1.531.6 3.001 1.68 4.085.116.116.236.175.359.345H5.739zm27.334-4.42c0 2.42-1.936 4.42-4.356 4.42h-.014a4.42 4.42 0 0 1-4.387-4.43v-3.28a.705.705 0 0 0-.68-.708H7.323l.175-23.91c0-1.582 1.307-2.871 2.914-2.871H34.36c-.775.85-1.287 1.926-1.287 3.126V34.18zM40.64 6.52v5.382h-6.207V6.526c0-1.702 1.416-3.125 3.118-3.125h.019a3.1 3.1 0 0 1 3.07 3.115v.005z"/><path fill="#44C6FE" d="M15.972 18.782l3.506 2.398a.67.67 0 0 0 .76 0l3.497-2.397c1.214-.829 2.111-2.561 2.111-4.03v-4.85a.665.665 0 0 0-.363-.612l-5.339-2.626a.668.668 0 0 0-.594 0l-5.33 2.62a.664.664 0 0 0-.362.61v4.858c0 1.469.9 3.201 2.114 4.03zm-.753-8.463l4.633-2.286 4.634 2.293v4.427c0 1.025-.672 2.328-1.519 2.905l-3.123 2.136-3.11-2.135c-.848-.579-1.515-1.881-1.515-2.906v-4.434z"/><path fill="#44C6FE" d="M18.702 15.78c.127.13.3.203.481.204h.002c.18 0 .354-.073.48-.201l2.707-2.707a.68.68 0 1 0-.962-.963l-2.223 2.222-.888-.897a.68.68 0 1 0-.967.958l1.37 1.384z"/></svg>
